symbols/be/GSA-opposite-2J.svg

<?xml version="1.0" encoding="UTF-8" standalone="no"?>
<svg
   width="16.176884"
   height="20"
   viewBox="0 0 16.176884 20"
   version="1.1"
   id="svg10"
   sodipodi:docname="GSA-opposite-2J.svg"
   inkscape:version="1.4.2 (ebf0e940d0, 2025-05-08)"
   xmlns:inkscape="http://www.inkscape.org/namespaces/inkscape"
   xmlns:sodipodi="http://sodipodi.sourceforge.net/DTD/sodipodi-0.dtd"
   xmlns="http://www.w3.org/2000/svg"
   xmlns:svg="http://www.w3.org/2000/svg">
  <sodipodi:namedview
     id="namedview10"
     pagecolor="#ffffff"
     bordercolor="#666666"
     borderopacity="1.0"
     inkscape:showpageshadow="2"
     inkscape:pageopacity="0.0"
     inkscape:pagecheckerboard="0"
     inkscape:deskcolor="#d1d1d1"
     inkscape:zoom="46.4"
     inkscape:cx="8.0818966"
     inkscape:cy="10"
     inkscape:window-width="1920"
     inkscape:window-height="1128"
     inkscape:window-x="0"
     inkscape:window-y="0"
     inkscape:window-maximized="1"
     inkscape:current-layer="svg10" />
  <defs
     id="defs4">
    <radialGradient
       id="radial-pattern-0"
       gradientUnits="userSpaceOnUse"
       cx="22.376717"
       cy="64.324425"
       fx="22.376717"
       fy="64.324425"
       r="5.148283"
       gradientTransform="matrix(-0.131415, 0.000000311241, 0.000000348228, 0.147032, 14.816255, 2.366381)">
      <stop
         offset="0"
         stop-color="rgb(100%, 81.176471%, 14.509804%)"
         stop-opacity="1"
         id="stop1" />
      <stop
         offset="1"
         stop-color="rgb(91.764706%, 60.392157%, 0%)"
         stop-opacity="1"
         id="stop2" />
    </radialGradient>
    <radialGradient
       id="radial-pattern-1"
       gradientUnits="userSpaceOnUse"
       cx="22.376717"
       cy="64.324425"
       fx="22.376717"
       fy="64.324425"
       r="5.148283"
       gradientTransform="matrix(-0.131415, 0.000000311241, 0.000000348228, 0.147032, 6.977603, -5.31243)">
      <stop
         offset="0"
         stop-color="rgb(100%, 81.176471%, 14.509804%)"
         stop-opacity="1"
         id="stop3" />
      <stop
         offset="1"
         stop-color="rgb(91.764706%, 60.392157%, 0%)"
         stop-opacity="1"
         id="stop4" />
    </radialGradient>
  </defs>
  <path
     fill-rule="nonzero"
     fill="rgb(0%, 0%, 0%)"
     fill-opacity="1"
     d="M 16.175781 0 L 0 0 L 0 5.941406 L 5.515625 11.261719 L 5.515625 20 L 16.175781 20 Z M 16.175781 0 "
     id="path4" />
  <path
     fill-rule="evenodd"
     fill="rgb(100%, 100%, 100%)"
     fill-opacity="1"
     d="M 12.503906 0.582031 L 4.269531 0.582031 C 1.535156 0.582031 -0.691406 3.882812 1.652344 6.523438 L 6.003906 10.875 L 6.003906 16.503906 C 6.003906 17.859375 7.359375 19.609375 9.109375 19.609375 L 12.492188 19.609375 C 14.160156 19.609375 15.710938 17.941406 15.710938 16.503906 L 15.710938 3.804688 C 15.710938 1.941406 13.964844 0.582031 12.503906 0.582031 Z M 12.308594 1.179688 L 4.058594 1.164062 C 1.8125 1.164062 0.257812 4.078125 2.003906 6.019531 L 6.585938 10.484375 L 6.585938 16.117188 C 6.585938 17.859375 8.140625 19.144531 9.617188 19.144531 L 12.121094 19.144531 C 13.964844 19.144531 15.132812 17.65625 15.132812 16.308594 L 15.132812 4.007812 C 15.132812 2.328125 13.867188 1.164062 12.308594 1.179688 Z M 12.308594 1.179688 "
     id="path5" />
  <path
     fill="none"
     stroke-width="0.142"
     stroke-linecap="butt"
     stroke-linejoin="miter"
     stroke="rgb(23.921569%, 23.921569%, 23.921569%)"
     stroke-opacity="1"
     stroke-miterlimit="4"
     d="M 10.942783 4.144821 C 10.942783 4.664822 11.360302 5.08234 11.876507 5.08234 C 12.388916 5.08234 12.814026 4.664822 12.814026 4.144821 C 12.814026 3.628616 12.388916 3.211098 11.876507 3.211098 C 11.360302 3.211098 10.942783 3.628616 10.942783 4.144821 Z M 10.942783 4.144821 "
     transform="matrix(1.029146, 0, 0, 1.029146, 0, 0)"
     id="path6" />
  <path
     fill="none"
     stroke-width="0.142"
     stroke-linecap="butt"
     stroke-linejoin="miter"
     stroke="rgb(23.921569%, 23.921569%, 23.921569%)"
     stroke-opacity="1"
     stroke-miterlimit="4"
     d="M 10.942783 7.985992 C 10.942783 8.498402 11.360302 8.923512 11.876507 8.923512 C 12.388916 8.923512 12.814026 8.498402 12.814026 7.985992 C 12.814026 7.469788 12.388916 7.048473 11.876507 7.048473 C 11.360302 7.048473 10.942783 7.469788 10.942783 7.985992 Z M 10.942783 7.985992 "
     transform="matrix(1.029146, 0, 0, 1.029146, 0, 0)"
     id="path7" />
  <path
     fill="none"
     stroke-width="0.142"
     stroke-linecap="butt"
     stroke-linejoin="miter"
     stroke="rgb(23.921569%, 23.921569%, 23.921569%)"
     stroke-opacity="1"
     stroke-miterlimit="4"
     d="M 10.942783 15.664539 C 10.942783 16.180744 11.360302 16.598263 11.876507 16.598263 C 12.388916 16.598263 12.814026 16.180744 12.814026 15.664539 C 12.814026 15.148335 12.388916 14.72702 11.876507 14.72702 C 11.360302 14.72702 10.942783 15.148335 10.942783 15.664539 Z M 10.942783 15.664539 "
     transform="matrix(1.029146, 0, 0, 1.029146, 0, 0)"
     id="path9" />
  <path
     fill-rule="nonzero"
     fill="url(#radial-pattern-1)"
     stroke-width="0.141509"
     stroke-linecap="butt"
     stroke-linejoin="miter"
     stroke="rgb(86.27451%, 52.54902%, 0%)"
     stroke-opacity="0.72549"
     stroke-miterlimit="4"
     d="m 11.261721,12.167972 c 0,0.53125 0.429688,0.964844 0.960939,0.964844 0.527343,0 0.964844,-0.433594 0.964844,-0.964844 0,-0.53125 -0.437501,-0.964844 -0.964844,-0.964844 -0.531251,0 -0.960939,0.433594 -0.960939,0.964844 z m 0,0"
     id="path8"
     style="fill:#ffcf25;fill-opacity:1;stroke:#ffcf25;stroke-width:0.75;stroke-dasharray:none;stroke-opacity:1" />
  <path
     fill-rule="nonzero"
     fill="url(#radial-pattern-1)"
     stroke-width="0.141509"
     stroke-linecap="butt"
     stroke-linejoin="miter"
     stroke="rgb(86.27451%, 52.54902%, 0%)"
     stroke-opacity="0.72549"
     stroke-miterlimit="4"
     d="m 3.1914075,4.265626 c 0,0.5351569 0.429687,0.9648439 0.9609373,0.9648439 0.5351569,0 0.9648439,-0.429687 0.9648439,-0.9648439 0,-0.5312504 -0.429687,-0.9609373 -0.9648439,-0.9609373 -0.5312503,0 -0.9609373,0.4296869 -0.9609373,0.9609373 z m 0,0"
     id="path10"
     style="fill:#ffcf25;fill-opacity:1;stroke:#ffcf25;stroke-width:0.75;stroke-dasharray:none;stroke-opacity:1" />
</svg>

<?xml version="1.0" encoding="UTF-8"?>
<svg xmlns="http://www.w3.org/2000/svg" xmlns:xlink="http://www.w3.org/1999/xlink" width="16.176884" height="20" viewBox="0 0 16.176884 20">
<path fill-rule="nonzero" fill="rgb(0%, 0%, 0%)" fill-opacity="1" d="M 16.175781 0 L 0 0 L 0 5.941406 L 5.515625 11.261719 L 5.515625 20 L 16.175781 20 Z M 16.175781 0 "/>
<path fill-rule="evenodd" fill="rgb(100%, 100%, 100%)" fill-opacity="1" d="M 12.503906 0.582031 L 4.269531 0.582031 C 1.535156 0.582031 -0.691406 3.882812 1.652344 6.523438 L 6.003906 10.875 L 6.003906 16.503906 C 6.003906 17.859375 7.359375 19.609375 9.109375 19.609375 L 12.492188 19.609375 C 14.160156 19.609375 15.710938 17.941406 15.710938 16.503906 L 15.710938 3.804688 C 15.710938 1.941406 13.964844 0.582031 12.503906 0.582031 Z M 12.308594 1.179688 L 4.058594 1.164062 C 1.8125 1.164062 0.257812 4.078125 2.003906 6.019531 L 6.585938 10.484375 L 6.585938 16.117188 C 6.585938 17.859375 8.140625 19.144531 9.617188 19.144531 L 12.121094 19.144531 C 13.964844 19.144531 15.132812 17.65625 15.132812 16.308594 L 15.132812 4.007812 C 15.132812 2.328125 13.867188 1.164062 12.308594 1.179688 Z M 12.308594 1.179688 "/>
<path fill="none" stroke-width="0.142" stroke-linecap="butt" stroke-linejoin="miter" stroke="rgb(23.921569%, 23.921569%, 23.921569%)" stroke-opacity="1" stroke-miterlimit="4" d="M 10.942781 4.14482 C 10.942781 4.664821 11.360299 5.082339 11.876504 5.082339 C 12.388913 5.082339 12.814023 4.664821 12.814023 4.14482 C 12.814023 3.628616 12.388913 3.211097 11.876504 3.211097 C 11.360299 3.211097 10.942781 3.628616 10.942781 4.14482 Z M 10.942781 4.14482 " transform="matrix(1.029146, 0, 0, 1.029146, 0, 0)"/>
<path fill="none" stroke-width="0.142" stroke-linecap="butt" stroke-linejoin="miter" stroke="rgb(23.921569%, 23.921569%, 23.921569%)" stroke-opacity="1" stroke-miterlimit="4" d="M 10.942781 7.985991 C 10.942781 8.4984 11.360299 8.92351 11.876504 8.92351 C 12.388913 8.92351 12.814023 8.4984 12.814023 7.985991 C 12.814023 7.469786 12.388913 7.048472 11.876504 7.048472 C 11.360299 7.048472 10.942781 7.469786 10.942781 7.985991 Z M 10.942781 7.985991 " transform="matrix(1.029146, 0, 0, 1.029146, 0, 0)"/>
<path fill="none" stroke-width="0.142" stroke-linecap="butt" stroke-linejoin="miter" stroke="rgb(23.921569%, 23.921569%, 23.921569%)" stroke-opacity="1" stroke-miterlimit="4" d="M 10.942781 15.664536 C 10.942781 16.180741 11.360299 16.598259 11.876504 16.598259 C 12.388913 16.598259 12.814023 16.180741 12.814023 15.664536 C 12.814023 15.148331 12.388913 14.727017 11.876504 14.727017 C 11.360299 14.727017 10.942781 15.148331 10.942781 15.664536 Z M 10.942781 15.664536 " transform="matrix(1.029146, 0, 0, 1.029146, 0, 0)"/>
<path fill-rule="nonzero" fill="rgb(100%, 81.176471%, 14.509804%)" fill-opacity="1" stroke-width="0.75" stroke-linecap="butt" stroke-linejoin="miter" stroke="rgb(100%, 81.176471%, 14.509804%)" stroke-opacity="1" stroke-miterlimit="4" d="M 11.261719 12.167969 C 11.261719 12.699219 11.691406 13.132812 12.222656 13.132812 C 12.75 13.132812 13.1875 12.699219 13.1875 12.167969 C 13.1875 11.636719 12.75 11.203125 12.222656 11.203125 C 11.691406 11.203125 11.261719 11.636719 11.261719 12.167969 Z M 11.261719 12.167969 "/>
<path fill-rule="nonzero" fill="rgb(100%, 81.176471%, 14.509804%)" fill-opacity="1" stroke-width="0.75" stroke-linecap="butt" stroke-linejoin="miter" stroke="rgb(100%, 81.176471%, 14.509804%)" stroke-opacity="1" stroke-miterlimit="4" d="M 3.191406 4.265625 C 3.191406 4.800781 3.621094 5.230469 4.152344 5.230469 C 4.6875 5.230469 5.117188 4.800781 5.117188 4.265625 C 5.117188 3.734375 4.6875 3.304688 4.152344 3.304688 C 3.621094 3.304688 3.191406 3.734375 3.191406 4.265625 Z M 3.191406 4.265625 "/>
</svg>
